X:1
T:"Good Health To My Brown Maid"   (air)   0595
T:"Good Health To My Brown Maid"   (air)   0595
T:Unattributerd very slow
C:Unattributerd
C:very slow
L:1/8
Q:1/4=50
M:4/4
K:C
V:1 treble 
V:1
 BEAue x2002 |SOSOOO .!fermata!PMTC ME2 | G2 (A>c) e2 (d>c) | B2"^shake" E^F{EF} A2 z B | %4
"^shake" A>G AB g2 ^fd | (e3/2{^fe}d/)Bd e2 z E | G2 (A>c) g2 ^f>d | e3/2{^fe} d/Bd e2 z B | %8
 d>ed>c e2 dc | B>(E"^shake" ^F)(E/F/) G2 z || (B/c/) | d>edc e2 dc | %12
 B>E ^F2 !fermata!G2 (3(de^f) | (g3/2{ag}^f/)ga (gf)(ed) |"^shake" (BA)B"^sharped roll#"d | %15
 e2 z (B/c/) | dB (de/^f/) g3 b | a>g^fe !fermata!d2 (e/^d/e/f/) | %18
 g>^fed{!fermata!B} !fermata!e2 dc | B>(E"^shake"^F)(E/F/) G3 |] %20

